icons/KoraCustom/apps/scalable/org.kde.plasma.fuzzyclock.svg

<svg xmlns="http://www.w3.org/2000/svg" width="48" height="48" version="1.1">
 <rect style="fill:#325f78" width="40" height="40" x="4" y="4" rx="2" ry="2"/>
 <path style="opacity:0.1;fill:#ffffff" d="M 6,4 C 4.892,4 4,4.892 4,6 L 4,7 C 4,5.892 4.892,5 6,5 l 36,0 c 1.108,0 2,0.892 2,2 L 44,6 C 44,4.892 43.108,4 42,4 L 6,4 Z"/>
 <path style="opacity:0.06000001" d="M 6,45 C 4.892,45 4,44.108 4,43 l 0,-1 c 0,1.108 0.892,2 2,2 l 36,0 c 1.108,0 2,-0.892 2,-2 l 0,1 c 0,1.108 -0.892,2 -2,2 L 6,45 Z"/>
 <path style="opacity:0.2" d="M 6,45 C 4.892,45 4,44.108 4,43 l 0,-1 c 0,1.108 0.892,2 2,2 l 36,0 c 1.108,0 2,-0.892 2,-2 l 0,1 c 0,1.108 -0.892,2 -2,2 L 6,45 Z"/>
 <path style="opacity:0.2" d="M 19.654297 9.7089844 C 19.488284 9.7089844 19.329101 9.7255656 19.177734 9.7597656 C 19.031254 9.7939456 18.901369 9.855466 18.789062 9.9433594 C 18.681636 10.026366 18.596676 10.137697 18.533203 10.279297 C 18.46973 10.416017 18.4375 10.590821 18.4375 10.800781 C 18.4375 11.005861 18.46973 11.178712 18.533203 11.320312 C 18.596683 11.461912 18.681643 11.576169 18.789062 11.664062 C 18.901362 11.747063 19.031248 11.80859 19.177734 11.847656 C 19.329101 11.881856 19.488284 11.898438 19.654297 11.898438 C 19.82031 11.898437 19.97656 11.881856 20.123047 11.847656 C 20.269534 11.808596 20.396486 11.747069 20.503906 11.664062 C 20.616213 11.576169 20.704105 11.461913 20.767578 11.320312 C 20.835938 11.178713 20.869141 11.005861 20.869141 10.800781 C 20.869141 10.590821 20.835938 10.416017 20.767578 10.279297 C 20.704105 10.137697 20.616213 10.026366 20.503906 9.9433594 C 20.396486 9.855486 20.269534 9.7939656 20.123047 9.7597656 C 19.97656 9.7255656 19.82031 9.7089844 19.654297 9.7089844 z M 10.476562 10.392578 L 10.476562 21.099609 L 12.710938 21.099609 L 12.710938 16.867188 L 16.34375 16.867188 L 16.34375 15.013672 L 12.710938 15.013672 L 12.710938 12.251953 L 16.613281 12.251953 L 16.613281 10.392578 L 10.476562 10.392578 z M 34.484375 12.759766 C 33.927762 12.759766 33.419924 12.850583 32.960938 13.03125 C 32.506817 13.21191 32.116209 13.482423 31.789062 13.84375 C 31.466796 14.20017 31.215823 14.648434 31.035156 15.185547 C 30.85449 15.722614 30.763672 16.348606 30.763672 17.066406 C 30.763672 17.774393 30.861327 18.392575 31.056641 18.919922 C 31.256834 19.442375 31.536131 19.877929 31.892578 20.224609 C 32.249011 20.566403 32.672849 20.821287 33.166016 20.992188 C 33.659209 21.163087 34.199216 21.25 34.785156 21.25 C 35.08789 21.25 35.367187 21.237291 35.621094 21.212891 C 35.875 21.193331 36.110351 21.158175 36.330078 21.109375 C 36.549805 21.060548 36.757812 21.001954 36.953125 20.933594 C 37.153318 20.860354 37.351562 20.774415 37.546875 20.671875 L 37.546875 18.943359 C 37.332035 19.050779 37.121096 19.145502 36.916016 19.228516 C 36.710936 19.306616 36.504882 19.372048 36.294922 19.425781 C 36.084955 19.479521 35.867185 19.521515 35.642578 19.550781 C 35.422858 19.575181 35.18848 19.585938 34.939453 19.585938 C 34.6416 19.585938 34.374998 19.540039 34.140625 19.447266 C 33.911132 19.354492 33.712888 19.223634 33.546875 19.052734 C 33.385742 18.876954 33.258789 18.665036 33.166016 18.416016 C 33.078129 18.162109 33.029298 17.878906 33.019531 17.566406 L 38.015625 17.566406 L 38.015625 16.480469 C 38.015625 15.884789 37.931638 15.359377 37.765625 14.900391 C 37.604498 14.436504 37.37012 14.043942 37.0625 13.726562 C 36.759753 13.409176 36.388672 13.170899 35.949219 13.009766 C 35.514679 12.843752 35.026368 12.759766 34.484375 12.759766 z M 21.931641 12.912109 L 24.824219 21.099609 L 27.123047 21.099609 L 30.017578 12.912109 L 27.673828 12.912109 L 26.326172 17.576172 C 26.243159 17.854492 26.168942 18.140627 26.105469 18.433594 C 26.046875 18.72168 26.01074 18.99512 25.996094 19.253906 L 25.951172 19.253906 C 25.936519 19.014653 25.897458 18.747072 25.833984 18.449219 C 25.775391 18.146485 25.706054 17.854492 25.623047 17.576172 L 24.267578 12.912109 L 21.931641 12.912109 z M 18.533203 12.916016 L 18.533203 21.105469 L 20.767578 21.105469 L 20.767578 12.916016 L 18.533203 12.916016 z M 34.5 14.349609 C 34.734373 14.349609 34.939454 14.394535 35.115234 14.482422 C 35.291014 14.570315 35.437501 14.69141 35.554688 14.847656 C 35.671874 14.999023 35.759766 15.180665 35.818359 15.390625 C 35.876973 15.600592 35.909196 15.829105 35.914062 16.078125 L 33.064453 16.078125 C 33.10352 15.482445 33.252932 15.045898 33.511719 14.767578 C 33.775392 14.489258 34.104493 14.349609 34.5 14.349609 z M 14.8125 28.976562 C 13.9873 28.976563 13.271482 29.109374 12.666016 29.373047 C 12.065456 29.63186 11.567382 29.999996 11.171875 30.478516 C 10.776368 30.956982 10.48047 31.53611 10.285156 32.214844 C 10.09473 32.888644 10 33.640636 10 34.470703 C 10 35.304036 10.095156 36.060234 10.285156 36.740234 C 10.48047 37.418968 10.773436 38.000975 11.164062 38.484375 C 11.559543 38.967768 12.057616 39.339842 12.658203 39.603516 C 13.26367 39.867189 13.976542 40 14.796875 40 C 15.617542 40 16.327068 39.866276 16.927734 39.599609 C 17.533228 39.335936 18.034181 38.961909 18.429688 38.478516 C 18.825201 37.995116 19.118167 37.415061 19.308594 36.736328 C 19.503585 36.058712 19.601241 35.307975 19.601562 34.484375 C 19.601562 34.484375 19.601562 34.482422 19.601562 34.482422 C 19.601562 34.482422 19.601562 34.480469 19.601562 34.480469 C 19.601244 33.647095 19.503588 32.895356 19.308594 32.222656 C 19.11816 31.54397 18.825194 30.964841 18.429688 30.486328 C 18.039074 30.002915 17.543946 29.631834 16.943359 29.373047 C 16.342826 29.109374 15.632833 28.976562 14.8125 28.976562 z M 14.8125 30.861328 C 15.242213 30.861328 15.610349 30.945315 15.917969 31.111328 C 16.225582 31.277348 16.476562 31.515625 16.671875 31.828125 C 16.872068 32.140645 17.018555 32.52149 17.111328 32.970703 C 17.208981 33.41505 17.257812 33.918949 17.257812 34.480469 C 17.257812 35.041982 17.208981 35.546874 17.111328 35.996094 C 17.018555 36.440394 16.872068 36.818359 16.671875 37.130859 C 16.476562 37.438479 16.222656 37.675784 15.910156 37.841797 C 15.60253 38.00781 15.231448 38.089844 14.796875 38.089844 C 14.372095 38.089844 14.006839 38.00781 13.699219 37.841797 C 13.391605 37.675784 13.134767 37.438479 12.929688 37.130859 C 12.729487 36.818393 12.580075 36.440427 12.482422 35.996094 C 12.384769 35.546887 12.335938 35.041995 12.335938 34.480469 C 12.335938 33.918942 12.384769 33.415043 12.482422 32.970703 C 12.580082 32.52147 12.729494 32.140625 12.929688 31.828125 C 13.134768 31.515625 13.392578 31.277348 13.705078 31.111328 C 14.017605 30.945315 14.387693 30.861328 14.8125 30.861328 z M 26.076172 31.507812 C 25.841792 31.507812 25.613279 31.531278 25.388672 31.580078 C 25.164059 31.624025 24.952146 31.695315 24.751953 31.792969 C 24.55176 31.890629 24.366213 32.014649 24.195312 32.166016 C 24.029299 32.317382 23.886718 32.499024 23.769531 32.708984 L 23.644531 32.708984 L 23.345703 31.662109 L 21.638672 31.662109 L 21.638672 39.849609 L 23.873047 39.849609 L 23.873047 35.998047 C 23.873047 35.563494 23.896486 35.176757 23.945312 34.839844 C 23.994139 34.50293 24.075193 34.219728 24.1875 33.990234 C 24.304687 33.760741 24.460937 33.58789 24.65625 33.470703 C 24.851563 33.353516 25.095705 33.294922 25.388672 33.294922 C 25.779299 33.294922 26.062501 33.444334 26.238281 33.742188 C 26.418948 34.035168 26.509766 34.475586 26.509766 35.066406 L 26.509766 39.849609 L 28.742188 39.849609 L 28.742188 34.509766 C 28.742188 33.982406 28.679688 33.532223 28.552734 33.15625 C 28.425781 32.77539 28.244139 32.46289 28.009766 32.21875 C 27.775392 31.97461 27.495115 31.7959 27.167969 31.683594 C 26.840829 31.566407 26.476565 31.507812 26.076172 31.507812 z M 34.337891 31.511719 C 33.781277 31.511719 33.27344 31.602536 32.814453 31.783203 C 32.360333 31.963863 31.969725 32.234376 31.642578 32.595703 C 31.320318 32.952123 31.069339 33.398434 30.888672 33.935547 C 30.708005 34.472614 30.617188 35.100559 30.617188 35.818359 C 30.617188 36.526346 30.714843 37.144528 30.910156 37.671875 C 31.11035 38.194328 31.389647 38.627929 31.746094 38.974609 C 32.102527 39.316403 32.526365 39.573241 33.019531 39.744141 C 33.512725 39.915041 34.052732 40 34.638672 40 L 34.638672 40.003906 C 34.941339 40.003906 35.220609 39.989557 35.474609 39.962891 C 35.728516 39.943331 35.963867 39.910128 36.183594 39.861328 C 36.40332 39.812501 36.611327 39.753907 36.806641 39.685547 C 37.006834 39.612307 37.205077 39.524415 37.400391 39.421875 L 37.400391 37.693359 C 37.185551 37.800779 36.974611 37.895502 36.769531 37.978516 C 36.564451 38.056616 36.358397 38.122048 36.148438 38.175781 C 35.938478 38.229521 35.720707 38.271515 35.496094 38.300781 C 35.276374 38.325181 35.041995 38.337891 34.792969 38.337891 C 34.495115 38.337891 34.228514 38.291992 33.994141 38.199219 C 33.764647 38.106445 33.566404 37.973634 33.400391 37.802734 C 33.239257 37.626954 33.112305 37.415036 33.019531 37.166016 C 32.931645 36.912109 32.882814 36.628906 32.873047 36.316406 L 37.869141 36.316406 L 37.869141 35.232422 C 37.869141 34.636742 37.785154 34.109377 37.619141 33.650391 C 37.458014 33.186504 37.223636 32.795896 36.916016 32.478516 C 36.613269 32.161129 36.242188 31.920899 35.802734 31.759766 C 35.368194 31.593752 34.879884 31.511719 34.337891 31.511719 z M 34.353516 33.099609 C 34.587896 33.099609 34.79297 33.144535 34.96875 33.232422 C 35.14453 33.320315 35.291016 33.44141 35.408203 33.597656 C 35.52539 33.749023 35.613282 33.930665 35.671875 34.140625 C 35.730482 34.350592 35.760758 34.579105 35.765625 34.828125 L 32.917969 34.828125 C 32.957035 34.232445 33.104495 33.795898 33.363281 33.517578 C 33.626955 33.239258 33.958009 33.099609 34.353516 33.099609 z"/>
 <path style="fill:#ffffff" d="M 19.654297 8.7089844 C 19.488284 8.7089844 19.329101 8.7255656 19.177734 8.7597656 C 19.031254 8.7939456 18.901369 8.855466 18.789062 8.9433594 C 18.681636 9.026366 18.596676 9.1376969 18.533203 9.2792969 C 18.46973 9.4160169 18.4375 9.5908212 18.4375 9.8007812 C 18.4375 10.005861 18.46973 10.178712 18.533203 10.320312 C 18.596683 10.461912 18.681643 10.576169 18.789062 10.664062 C 18.901362 10.747063 19.031248 10.80859 19.177734 10.847656 C 19.329101 10.881856 19.488284 10.898438 19.654297 10.898438 C 19.82031 10.898437 19.97656 10.881856 20.123047 10.847656 C 20.269534 10.808596 20.396486 10.747069 20.503906 10.664062 C 20.616213 10.576169 20.704105 10.461913 20.767578 10.320312 C 20.835938 10.178713 20.869141 10.005861 20.869141 9.8007812 C 20.869141 9.5908213 20.835938 9.4160169 20.767578 9.2792969 C 20.704105 9.1376969 20.616213 9.026366 20.503906 8.9433594 C 20.396486 8.855486 20.269534 8.7939656 20.123047 8.7597656 C 19.97656 8.7255656 19.82031 8.7089844 19.654297 8.7089844 z M 10.476562 9.3925781 L 10.476562 20.099609 L 12.710938 20.099609 L 12.710938 15.867188 L 16.34375 15.867188 L 16.34375 14.013672 L 12.710938 14.013672 L 12.710938 11.251953 L 16.613281 11.251953 L 16.613281 9.3925781 L 10.476562 9.3925781 z M 34.484375 11.759766 C 33.927762 11.759766 33.419924 11.850583 32.960938 12.03125 C 32.506817 12.21191 32.116209 12.482423 31.789062 12.84375 C 31.466796 13.20017 31.215823 13.648434 31.035156 14.185547 C 30.85449 14.722614 30.763672 15.348606 30.763672 16.066406 C 30.763672 16.774393 30.861327 17.392575 31.056641 17.919922 C 31.256834 18.442375 31.536131 18.877929 31.892578 19.224609 C 32.249011 19.566403 32.672849 19.821287 33.166016 19.992188 C 33.659209 20.163087 34.199216 20.25 34.785156 20.25 C 35.08789 20.25 35.367187 20.237291 35.621094 20.212891 C 35.875 20.193331 36.110351 20.158175 36.330078 20.109375 C 36.549805 20.060548 36.757812 20.001954 36.953125 19.933594 C 37.153318 19.860354 37.351562 19.774415 37.546875 19.671875 L 37.546875 17.943359 C 37.332035 18.050779 37.121096 18.145502 36.916016 18.228516 C 36.710936 18.306616 36.504882 18.372048 36.294922 18.425781 C 36.084955 18.479521 35.867185 18.521515 35.642578 18.550781 C 35.422858 18.575181 35.18848 18.585938 34.939453 18.585938 C 34.6416 18.585938 34.374998 18.540039 34.140625 18.447266 C 33.911132 18.354492 33.712888 18.223634 33.546875 18.052734 C 33.385742 17.876954 33.258789 17.665036 33.166016 17.416016 C 33.078129 17.162109 33.029298 16.878906 33.019531 16.566406 L 38.015625 16.566406 L 38.015625 15.480469 C 38.015625 14.884789 37.931638 14.359377 37.765625 13.900391 C 37.604498 13.436504 37.37012 13.043942 37.0625 12.726562 C 36.759753 12.409176 36.388672 12.170899 35.949219 12.009766 C 35.514679 11.843752 35.026368 11.759766 34.484375 11.759766 z M 21.931641 11.912109 L 24.824219 20.099609 L 27.123047 20.099609 L 30.017578 11.912109 L 27.673828 11.912109 L 26.326172 16.576172 C 26.243159 16.854492 26.168942 17.140627 26.105469 17.433594 C 26.046875 17.72168 26.01074 17.99512 25.996094 18.253906 L 25.951172 18.253906 C 25.936519 18.014653 25.897458 17.747072 25.833984 17.449219 C 25.775391 17.146485 25.706054 16.854492 25.623047 16.576172 L 24.267578 11.912109 L 21.931641 11.912109 z M 18.533203 11.916016 L 18.533203 20.105469 L 20.767578 20.105469 L 20.767578 11.916016 L 18.533203 11.916016 z M 34.5 13.349609 C 34.734373 13.349609 34.939454 13.394535 35.115234 13.482422 C 35.291014 13.570315 35.437501 13.69141 35.554688 13.847656 C 35.671874 13.999023 35.759766 14.180665 35.818359 14.390625 C 35.876973 14.600592 35.909196 14.829105 35.914062 15.078125 L 33.064453 15.078125 C 33.10352 14.482445 33.252932 14.045898 33.511719 13.767578 C 33.775392 13.489258 34.104493 13.349609 34.5 13.349609 z M 14.8125 27.976562 C 13.9873 27.976563 13.271482 28.109374 12.666016 28.373047 C 12.065456 28.63186 11.567382 28.999996 11.171875 29.478516 C 10.776368 29.956982 10.48047 30.53611 10.285156 31.214844 C 10.09473 31.888644 10 32.640636 10 33.470703 C 10 34.304036 10.095156 35.060234 10.285156 35.740234 C 10.48047 36.418968 10.773436 37.000975 11.164062 37.484375 C 11.559543 37.967768 12.057616 38.339842 12.658203 38.603516 C 13.26367 38.867189 13.976542 39 14.796875 39 C 15.617542 39 16.327068 38.866276 16.927734 38.599609 C 17.533228 38.335936 18.034181 37.961909 18.429688 37.478516 C 18.825201 36.995116 19.118167 36.415061 19.308594 35.736328 C 19.503585 35.058712 19.601241 34.307975 19.601562 33.484375 C 19.601562 33.484375 19.601562 33.482422 19.601562 33.482422 C 19.601562 33.482422 19.601562 33.480469 19.601562 33.480469 C 19.601244 32.647095 19.503588 31.895356 19.308594 31.222656 C 19.11816 30.54397 18.825194 29.964841 18.429688 29.486328 C 18.039074 29.002915 17.543946 28.631834 16.943359 28.373047 C 16.342826 28.109374 15.632833 27.976562 14.8125 27.976562 z M 14.8125 29.861328 C 15.242213 29.861328 15.610349 29.945315 15.917969 30.111328 C 16.225582 30.277348 16.476562 30.515625 16.671875 30.828125 C 16.872068 31.140645 17.018555 31.52149 17.111328 31.970703 C 17.208981 32.41505 17.257812 32.918949 17.257812 33.480469 C 17.257812 34.041982 17.208981 34.546874 17.111328 34.996094 C 17.018555 35.440394 16.872068 35.818359 16.671875 36.130859 C 16.476562 36.438479 16.222656 36.675784 15.910156 36.841797 C 15.60253 37.00781 15.231448 37.089844 14.796875 37.089844 C 14.372095 37.089844 14.006839 37.00781 13.699219 36.841797 C 13.391605 36.675784 13.134767 36.438479 12.929688 36.130859 C 12.729487 35.818393 12.580075 35.440427 12.482422 34.996094 C 12.384769 34.546887 12.335938 34.041995 12.335938 33.480469 C 12.335938 32.918942 12.384769 32.415043 12.482422 31.970703 C 12.580082 31.52147 12.729494 31.140625 12.929688 30.828125 C 13.134768 30.515625 13.392578 30.277348 13.705078 30.111328 C 14.017605 29.945315 14.387693 29.861328 14.8125 29.861328 z M 26.076172 30.507812 C 25.841792 30.507813 25.613279 30.531278 25.388672 30.580078 C 25.164059 30.624025 24.952146 30.695315 24.751953 30.792969 C 24.55176 30.890629 24.366212 31.014649 24.195312 31.166016 C 24.029299 31.317382 23.886718 31.499024 23.769531 31.708984 L 23.644531 31.708984 L 23.345703 30.662109 L 21.638672 30.662109 L 21.638672 38.849609 L 23.873047 38.849609 L 23.873047 34.998047 C 23.873047 34.563494 23.896486 34.176757 23.945312 33.839844 C 23.994139 33.50293 24.075193 33.219728 24.1875 32.990234 C 24.304687 32.760741 24.460937 32.58789 24.65625 32.470703 C 24.851563 32.353516 25.095705 32.294922 25.388672 32.294922 C 25.779299 32.294922 26.062501 32.444334 26.238281 32.742188 C 26.418948 33.035168 26.509766 33.475586 26.509766 34.066406 L 26.509766 38.849609 L 28.742188 38.849609 L 28.742188 33.509766 C 28.742188 32.982406 28.679688 32.532223 28.552734 32.15625 C 28.425781 31.77539 28.244139 31.46289 28.009766 31.21875 C 27.775392 30.97461 27.495115 30.7959 27.167969 30.683594 C 26.840829 30.566407 26.476565 30.507812 26.076172 30.507812 z M 34.337891 30.511719 C 33.781277 30.511719 33.27344 30.602536 32.814453 30.783203 C 32.360333 30.963863 31.969725 31.234376 31.642578 31.595703 C 31.320318 31.952123 31.069339 32.398434 30.888672 32.935547 C 30.708005 33.472614 30.617188 34.100559 30.617188 34.818359 C 30.617188 35.526346 30.714843 36.144528 30.910156 36.671875 C 31.11035 37.194328 31.389647 37.627929 31.746094 37.974609 C 32.102527 38.316403 32.526365 38.573241 33.019531 38.744141 C 33.512725 38.915041 34.052732 39 34.638672 39 L 34.638672 39.003906 C 34.941339 39.003906 35.220609 38.989557 35.474609 38.962891 C 35.728516 38.943331 35.963867 38.910128 36.183594 38.861328 C 36.40332 38.812501 36.611327 38.753907 36.806641 38.685547 C 37.006834 38.612307 37.205077 38.524415 37.400391 38.421875 L 37.400391 36.693359 C 37.185551 36.800779 36.974611 36.895502 36.769531 36.978516 C 36.564451 37.056616 36.358397 37.122048 36.148438 37.175781 C 35.938478 37.229521 35.720707 37.271515 35.496094 37.300781 C 35.276374 37.325181 35.041995 37.337891 34.792969 37.337891 C 34.495115 37.337891 34.228514 37.291992 33.994141 37.199219 C 33.764647 37.106445 33.566404 36.973634 33.400391 36.802734 C 33.239257 36.626954 33.112305 36.415036 33.019531 36.166016 C 32.931645 35.912109 32.882814 35.628906 32.873047 35.316406 L 37.869141 35.316406 L 37.869141 34.232422 C 37.869141 33.636742 37.785154 33.109377 37.619141 32.650391 C 37.458014 32.186504 37.223636 31.795896 36.916016 31.478516 C 36.613269 31.161129 36.242188 30.920899 35.802734 30.759766 C 35.368194 30.593752 34.879884 30.511719 34.337891 30.511719 z M 34.353516 32.099609 C 34.587896 32.099609 34.79297 32.144535 34.96875 32.232422 C 35.14453 32.320315 35.291016 32.44141 35.408203 32.597656 C 35.52539 32.749023 35.613282 32.930665 35.671875 33.140625 C 35.730482 33.350592 35.760758 33.579105 35.765625 33.828125 L 32.917969 33.828125 C 32.957035 33.232445 33.104495 32.795898 33.363281 32.517578 C 33.626955 32.239258 33.958009 32.099609 34.353516 32.099609 z"/>
</svg>

<svg clip-rule="evenodd" fill-rule="evenodd" stroke-linejoin="round" stroke-miterlimit="2" viewBox="0 0 48 48" xmlns="http://www.w3.org/2000/svg">
 <linearGradient id="a" x2="1" gradientTransform="matrix(0 -43.5335 43.5335 0 24 45.737)" gradientUnits="userSpaceOnUse">
  <stop stop-color="#094b61" offset="0"/>
  <stop stop-color="#325f78" offset="1"/>
 </linearGradient>
 <path d="m39.44 2.332c3.438 0 6.228 2.79 6.228 6.228v30.88c0 3.438-2.79 6.228-6.228 6.228h-30.88c-3.438 0-6.228-2.79-6.228-6.228v-30.88c0-3.438 2.79-6.228 6.228-6.228z" fill="url(#a)"/>
 <path d="m19.654 8.709c-.166 0-.325.017-.476.051-.147.034-.277.095-.389.183-.107.083-.192.195-.256.336-.063.137-.095.312-.095.522 0 .205.032.378.095.519.064.142.149.256.256.344.112.083.242.145.389.184.151.034.31.05.476.05s.323-.016.469-.05c.147-.039.273-.101.381-.184.112-.088.2-.202.264-.344.068-.141.101-.314.101-.519 0-.21-.033-.385-.101-.522-.064-.141-.152-.253-.264-.336-.108-.088-.234-.149-.381-.183-.146-.034-.303-.051-.469-.051zm-9.177.684v10.707h2.234v-4.233h3.633v-1.853h-3.633v-2.762h3.902v-1.859zm24.007 2.367c-.556 0-1.064.091-1.523.271-.454.181-.845.451-1.172.813-.322.356-.573.804-.754 1.342-.181.537-.271 1.163-.271 1.88 0 .708.097 1.327.293 1.854.2.522.479.958.836 1.305.356.341.78.596 1.273.767s1.033.258 1.619.258c.303 0 .582-.013.836-.037.254-.02.489-.055.709-.104.22-.048.428-.107.623-.175.2-.074.399-.16.594-.262v-1.729c-.215.108-.426.203-.631.286-.205.078-.411.143-.621.197s-.428.096-.652.125c-.22.024-.455.035-.704.035-.297 0-.564-.046-.798-.139-.23-.093-.428-.223-.594-.394-.161-.176-.288-.388-.381-.637-.088-.254-.137-.537-.146-.85h4.996v-1.086c0-.595-.084-1.121-.25-1.58-.162-.463-.396-.856-.703-1.173-.303-.318-.674-.556-1.114-.717-.434-.166-.923-.25-1.465-.25zm-12.552.152 2.892 8.188h2.299l2.895-8.188h-2.344l-1.348 4.664c-.083.278-.157.565-.221.858-.058.288-.094.561-.109.82h-.045c-.014-.239-.054-.507-.117-.805-.059-.303-.128-.595-.211-.873l-1.355-4.664zm-3.399.004v8.189h2.235v-8.189zm15.967 1.434c.234 0 .439.045.615.132.176.088.323.209.44.366.117.151.205.333.263.543.059.21.091.438.096.687h-2.85c.04-.596.189-1.032.448-1.31.263-.279.592-.418.988-.418zm-19.687 14.627c-.826 0-1.542.132-2.147.396-.601.259-1.099.627-1.494 1.106-.396.478-.692 1.057-.887 1.736-.19.674-.285 1.426-.285 2.256 0 .833.095 1.589.285 2.269.195.679.488 1.261.879 1.744.396.484.894.856 1.494 1.12.606.263 1.319.396 2.139.396.821 0 1.53-.134 2.131-.4.605-.264 1.106-.638 1.502-1.121.395-.484.688-1.064.879-1.743.195-.677.292-1.428.293-2.252v-.004c-.001-.833-.098-1.585-.293-2.257-.191-.679-.484-1.258-.879-1.737-.391-.483-.886-.854-1.487-1.113-.6-.264-1.31-.396-2.13-.396zm0 1.884c.429 0 .797.084 1.105.25s.559.405.754.717c.2.313.347.693.439 1.143.098.444.147.948.147 1.509 0 .562-.049 1.067-.147 1.516-.092.444-.239.822-.439 1.135-.195.307-.449.545-.762.711-.307.166-.679.248-1.113.248-.425 0-.79-.082-1.098-.248-.307-.166-.564-.404-.769-.711-.201-.313-.35-.691-.448-1.135-.097-.449-.146-.954-.146-1.516 0-.561.049-1.065.146-1.509.098-.45.247-.83.448-1.143.205-.312.463-.551.775-.717.313-.166.683-.25 1.108-.25zm11.263.647c-.234 0-.463.023-.687.072-.225.044-.437.115-.637.213s-.386.222-.557.373c-.166.151-.308.333-.425.543h-.125l-.299-1.047h-1.707v8.188h2.234v-3.852c0-.435.023-.821.072-1.158s.13-.62.243-.85c.117-.229.273-.402.468-.519.196-.117.44-.176.733-.176.39 0 .674.149.849.447.181.293.272.734.272 1.324v4.784h2.232v-5.34c0-.528-.062-.978-.189-1.354-.127-.381-.309-.693-.543-.937-.235-.244-.515-.423-.842-.535-.327-.118-.691-.176-1.092-.176zm8.262.004c-.557 0-1.065.091-1.524.271-.454.181-.844.451-1.171.813-.323.356-.574.802-.754 1.34-.181.537-.272 1.165-.272 1.882 0 .708.098 1.327.293 1.854.2.522.48.956.836 1.303.357.341.78.598 1.274.769.493.171 1.033.256 1.619.256v.004c.302 0 .582-.014.836-.041.254-.02.489-.053.709-.102.219-.048.427-.107.623-.175.2-.074.398-.162.593-.264v-1.729c-.214.108-.425.203-.63.286-.206.078-.412.143-.622.197s-.427.096-.652.125c-.22.024-.454.037-.703.037-.298 0-.564-.046-.799-.139-.229-.093-.428-.225-.594-.396-.161-.176-.288-.388-.38-.637-.088-.254-.137-.537-.147-.85h4.996v-1.084c0-.595-.084-1.123-.25-1.582-.161-.463-.395-.854-.703-1.171-.303-.318-.674-.558-1.113-.719-.435-.166-.923-.248-1.465-.248zm.016 1.588c.234 0 .439.045.615.132.176.088.322.209.439.366.117.151.205.333.264.543.058.21.089.438.094.687h-2.848c.039-.596.186-1.032.445-1.31.264-.279.595-.418.991-.418z" fill="#fff" fill-rule="nonzero"/>
</svg>
